;FLAVOR:Marlin
;TIME:874
;Filament used: 1.27409m
;Layer height: 0.3
;MINX:0.511
;MINY:1.845
;MINZ:0.3
;MAXX:199.465
;MAXY:77.188
;MAXZ:1.5
;Generated with Cura_SteamEngine 4.5.0
M140 S60
M105
M190 S60
M104 S200
M105
M109 S200
M82 ;absolute extrusion mode
G21 ;metric values
G90 ;absolute positioning
M82 ;set extruder to absolute mode
M107 ;start with the fan off
G28 X0 Y0 ;move X/Y to min endstops
G28 Z0 ;move Z to min endstops
G1 Z15.0 F9000 ;move the platform down 15mm
G92 E0 ;zero the extruded length
G1 F200 E3 ;extrude 3mm of feed stock
G92 E0 ;zero the extruded length again
G1 F9000
;Put printing message on LCD screen
M117 Printing...
G92 E0
G92 E0
G1 F1500 E-6.5
;LAYER_COUNT:5
;LAYER:0
M107
G0 F3600 X2.811 Y4.033 Z0.3
;TYPE:SKIRT
G1 F1500 E0
G1 F1800 X3.743 Y3.259 E0.06044
G1 X4.26 Y2.918 E0.09134
G1 X5.381 Y2.371 E0.15357
G1 X5.982 Y2.159 E0.18536
G1 X7.165 Y1.907 E0.24571
G1 X7.791 Y1.845 E0.27709
G1 X9.013 Y1.882 E0.33809
G1 X9.643 Y1.973 E0.36984
G1 X10.814 Y2.3 E0.4305
G1 X12.19 Y2.893 E0.50525
G1 X14.677 Y3.992 E0.6409
G1 X17.251 Y5.043 E0.77961
G1 X19.823 Y6.011 E0.91672
G1 X22.401 Y6.895 E1.05269
G1 X24.97 Y7.698 E1.18697
G1 X27.641 Y8.451 E1.32542
G1 X30.289 Y9.117 E1.46164
G1 X32.967 Y9.709 E1.59848
G1 X35.672 Y10.228 E1.73589
G1 X38.336 Y10.662 E1.87055
G1 X41.089 Y11.03 E2.00912
G1 X43.764 Y11.312 E2.14332
G1 X46.54 Y11.524 E2.28221
G1 X49.259 Y11.656 E2.41803
G1 X51.975 Y11.71 E2.55355
G1 X54.727 Y11.687 E2.69086
G1 X57.474 Y11.586 E2.828
G1 X61.068 Y11.337 E3.00773
G1 X62.473 Y11.213 E3.0781
G1 X73.691 Y10.39 E3.63927
G1 X75.234 Y10.299 E3.71639
G1 X86.418 Y9.807 E4.2749
G1 X87.992 Y9.76 E4.35346
G1 X99.203 Y9.595 E4.91284
G1 X100.797 Y9.595 E4.99237
G1 X111.961 Y9.759 E5.5494
G1 X113.535 Y9.805 E5.62796
G1 X124.718 Y10.296 E6.18642
G1 X126.263 Y10.387 E6.26363
G1 X137.483 Y11.21 E6.82491
G1 X138.932 Y11.337 E6.89747
G1 X141.64 Y11.538 E7.03295
G1 X144.392 Y11.664 E7.17039
G1 X147.146 Y11.711 E7.30781
G1 X149.862 Y11.683 E7.44332
G1 X152.617 Y11.574 E7.58087
G1 X155.355 Y11.39 E7.71778
G1 X158.07 Y11.129 E7.85386
G1 X160.768 Y10.792 E7.98951
G1 X163.49 Y10.374 E8.1269
G1 X166.189 Y9.883 E8.26376
G1 X168.819 Y9.325 E8.39789
G1 X171.519 Y8.674 E8.53646
G1 X174.172 Y7.952 E8.67363
G1 X176.794 Y7.159 E8.8103
G1 X179.357 Y6.304 E8.94509
G1 X181.952 Y5.356 E9.08292
G1 X184.503 Y4.341 E9.2199
G1 X186.999 Y3.266 E9.35548
G1 X188.557 Y2.547 E9.44109
G1 X189.816 Y2.121 E9.5074
G1 X190.72 Y1.923 E9.55357
G1 X191.94 Y1.852 E9.61454
G1 X192.585 Y1.886 E9.64676
G1 X193.788 Y2.11 E9.70781
G1 X194.373 Y2.287 E9.7383
G1 X195.439 Y2.769 E9.79667
G1 X196.012 Y3.113 E9.83001
G1 X196.679 Y3.616 E9.87169
G1 X197.001 Y3.875 E9.89231
G1 X197.439 Y4.308 E9.92304
G1 X198.198 Y5.28 E9.98456
G1 X198.524 Y5.812 E10.01569
G1 X199.029 Y6.942 E10.07744
G1 X199.218 Y7.539 E10.10868
G1 X199.425 Y8.684 E10.16673
G1 X199.465 Y9.342 E10.19962
G1 X199.428 Y10.205 E10.24272
G1 X199.296 Y11.17 E10.29131
G1 X199.019 Y12.17 E10.34308
G1 X198.545 Y13.802 E10.42786
G1 X197.859 Y16.439 E10.5638
G1 X197.236 Y19.147 E10.70243
G1 X196.698 Y21.832 E10.83905
G1 X196.243 Y24.496 E10.97388
G1 X195.859 Y27.194 E11.10984
G1 X195.548 Y29.936 E11.24752
G1 X195.316 Y32.675 E11.38466
G1 X195.162 Y35.394 E11.52053
G1 X195.085 Y38.143 E11.65773
G1 X195.085 Y40.861 E11.79333
G1 X195.164 Y43.617 E11.93088
G1 X195.32 Y46.362 E12.06805
G1 X195.55 Y49.072 E12.20374
G1 X195.858 Y51.777 E12.33957
G1 X196.246 Y54.498 E12.47669
G1 X196.712 Y57.214 E12.61417
G1 X197.243 Y59.862 E12.74891
G1 X197.856 Y62.524 E12.8852
G1 X198.565 Y65.244 E13.02543
G1 X198.934 Y66.556 E13.09343
G1 X199.232 Y67.575 E13.1464
G1 X199.372 Y68.313 E13.18387
G1 X199.463 Y69.173 E13.22702
G1 X199.461 Y69.837 E13.26014
G1 X199.375 Y70.643 E13.30058
G1 X199.186 Y71.614 E13.34994
G1 X198.742 Y72.788 E13.41256
G1 X198.476 Y73.309 E13.44174
G1 X198.194 Y73.745 E13.46765
G1 X197.735 Y74.381 E13.50678
G1 X197.321 Y74.849 E13.53795
G1 X196.944 Y75.195 E13.56348
G1 X196.397 Y75.658 E13.59923
G1 X195.898 Y76.006 E13.62958
G1 X194.794 Y76.579 E13.69164
G1 X194.173 Y76.813 E13.72475
G1 X193.076 Y77.073 E13.78099
G1 X192.416 Y77.152 E13.81416
G1 X191.569 Y77.164 E13.85642
G1 X190.598 Y77.092 E13.90499
G1 X189.361 Y76.782 E13.96862
G1 X188.747 Y76.549 E14.00138
G1 X188.27 Y76.309 E14.02802
G1 X187.837 Y76.046 E14.05329
G1 X187.173 Y75.474 E14.09702
G1 X186.764 Y75.028 E14.12721
G1 X186.292 Y74.405 E14.1662
G1 X184.61 Y72.253 E14.30247
G1 X182.875 Y70.158 E14.43818
G1 X181.04 Y68.065 E14.57705
G1 X179.195 Y66.077 E14.71236
G1 X177.286 Y64.136 E14.84819
G1 X175.289 Y62.214 E14.98647
G1 X173.271 Y60.38 E15.12251
G1 X171.205 Y58.606 E15.25837
G1 X169.075 Y56.881 E15.39511
G1 X166.902 Y55.22 E15.53157
G1 X164.663 Y53.606 E15.66927
G1 X162.4 Y52.07 E15.80572
G1 X160.106 Y50.606 E15.94149
G1 X157.75 Y49.196 E16.07847
G1 X155.366 Y47.857 E16.21489
G1 X152.939 Y46.584 E16.35162
G1 X150.493 Y45.387 E16.48748
G1 X147.975 Y44.243 E16.62546
G1 X145.466 Y43.187 E16.76127
G1 X142.896 Y42.19 E16.89879
G1 X140.319 Y41.275 E17.03523
G1 X137.753 Y40.444 E17.16979
G1 X135.078 Y39.659 E17.30887
G1 X132.476 Y38.977 E17.44307
G1 X129.779 Y38.349 E17.58123
G1 X127.065 Y37.796 E17.71941
G1 X124.414 Y37.338 E17.85363
G1 X121.71 Y36.946 E17.98994
G1 X118.968 Y36.628 E18.12766
G1 X116.248 Y36.391 E18.26387
G1 X112.796 Y36.2 E18.43636
G1 X110.265 Y36.131 E18.56268
G1 X101.382 Y36.004 E19.0059
G1 X98.618 Y36.004 E19.14379
G1 X89.753 Y36.131 E19.58612
G1 X86.765 Y36.218 E19.73525
G1 X84.057 Y36.369 E19.87056
G1 X81.304 Y36.601 E20.0084
G1 X78.579 Y36.908 E20.14521
G1 X75.892 Y37.288 E20.2806
G1 X73.183 Y37.75 E20.4177
G1 X70.532 Y38.278 E20.55256
G1 X67.824 Y38.899 E20.69117
G1 X65.203 Y39.579 E20.82626
G1 X62.538 Y40.351 E20.96468
G1 X59.944 Y41.182 E21.10058
G1 X57.372 Y42.088 E21.23662
G1 X54.828 Y43.065 E21.37258
G1 X52.275 Y44.128 E21.51055
G1 X49.796 Y45.246 E21.64622
G1 X47.313 Y46.45 E21.7839
G1 X44.883 Y47.715 E21.92057
G1 X42.514 Y49.035 E22.05587
G1 X40.149 Y50.442 E22.19316
G1 X37.832 Y51.908 E22.32995
G1 X35.575 Y53.43 E22.46577
G1 X33.334 Y55.034 E22.60326
G1 X31.153 Y56.691 E22.73991
G1 X29.042 Y58.39 E22.8751
G1 X26.928 Y60.194 E23.01375
G1 X24.933 Y61.994 E23.14781
G1 X22.911 Y63.927 E23.28737
G1 X21.014 Y65.847 E23.42202
G1 X19.142 Y67.849 E23.55877
G1 X17.32 Y69.914 E23.69616
G1 X15.571 Y72.011 E23.83239
G1 X13.218 Y75.038 E24.02367
G1 X12.492 Y75.775 E24.07528
G1 X12.097 Y76.091 E24.10052
G1 X11.281 Y76.535 E24.14686
G1 X10.641 Y76.785 E24.18114
G1 X9.722 Y77.041 E24.22874
G1 X9.075 Y77.148 E24.26146
G1 X7.871 Y77.188 E24.32156
G1 X7.248 Y77.141 E24.35273
G1 X6.027 Y76.882 E24.415
G1 X5.438 Y76.687 E24.44595
G1 X4.354 Y76.167 E24.50593
G1 X3.845 Y75.851 E24.53582
G1 X2.86 Y75.041 E24.59945
G1 X2.427 Y74.593 E24.63053
G1 X1.7 Y73.614 E24.69137
G1 X1.395 Y73.096 E24.72136
G1 X0.902 Y71.926 E24.7847
G1 X0.725 Y71.317 E24.81634
G1 X0.54 Y70.14 E24.87578
G1 X0.511 Y69.571 E24.90421
G1 X0.537 Y69.063 E24.92958
G1 X0.617 Y68.268 E24.96945
G1 X0.717 Y67.735 E24.9965
G1 X0.863 Y67.207 E25.02383
G1 X1.338 Y65.594 E25.10772
G1 X2.043 Y62.926 E25.2454
G1 X2.669 Y60.263 E25.38188
G1 X3.218 Y57.571 E25.51895
G1 X3.688 Y54.883 E25.65509
G1 X4.084 Y52.18 E25.79138
G1 X4.405 Y49.454 E25.92832
G1 X4.646 Y46.741 E26.0642
G1 X4.813 Y43.994 E26.20151
G1 X4.9 Y41.266 E26.33768
G1 X4.911 Y38.523 E26.47453
G1 X4.844 Y35.788 E26.61102
G1 X4.698 Y33.023 E26.74915
G1 X4.48 Y30.348 E26.88305
G1 X4.181 Y27.612 E27.02037
G1 X3.802 Y24.88 E27.15797
G1 X3.354 Y22.199 E27.29358
G1 X2.824 Y19.5 E27.43081
G1 X2.226 Y16.859 E27.5659
G1 X1.543 Y14.189 E27.7034
G1 X0.944 Y12.075 E27.81302
G1 X0.736 Y11.37 E27.84969
G1 X0.631 Y10.864 E27.87547
G1 X0.571 Y10.36 E27.90079
G1 X0.514 Y9.617 E27.93797
G1 X0.53 Y8.974 E27.97006
G1 X0.713 Y7.776 E28.03052
G1 X0.879 Y7.163 E28.06221
G1 X1.349 Y6.034 E28.12322
G1 X1.657 Y5.477 E28.15497
G1 X2.382 Y4.494 E28.21591
G1 X2.811 Y4.033 E28.24733
G1 F1500 E21.74733
;MESH:aos.stl
G0 F3600 X4.557 Y5.865
G0 X5.376 Y6.852
G0 X7.575 Y7.672
;TYPE:WALL-INNER
G1 F1500 E28.24733
G1 F1800 X6.782 Y8.182 E28.29437
G1 X6.325 Y8.989 E28.34064
G1 X6.292 Y9.921 E28.38716
G1 X6.699 Y10.757 E28.43355
G1 X7.289 Y11.193 E28.47015
G1 X8.819 Y11.882 E28.55387
G1 X9.449 Y12.213 E28.58937
G1 X10.718 Y12.868 E28.66062
G1 X11.943 Y13.585 E28.73143
G1 X15.167 Y15.38 E28.91553
G1 X18.607 Y16.863 E29.10242
G1 X22.18 Y17.992 E29.28936
G1 X25.846 Y18.76 E29.47623
G1 X29.571 Y19.152 E29.6631
G1 X33.316 Y19.168 E29.84994
G1 X37.002 Y18.811 E30.03469
G1 X49.587 Y17.144 E30.66805
G1 X62.149 Y15.848 E31.29809
G1 X74.723 Y14.926 E31.9271
G1 X87.388 Y14.37 E32.55957
G1 X100 Y14.184 E33.18885
G1 X112.612 Y14.37 E33.81813
G1 X125.277 Y14.927 E34.4506
G1 X137.851 Y15.848 E35.0796
G1 X150.413 Y17.144 E35.70965
G1 X162.998 Y18.811 E36.343
G1 X166.684 Y19.168 E36.52776
G1 X170.429 Y19.152 E36.7146
G1 X174.154 Y18.76 E36.90147
G1 X177.82 Y17.992 E37.08833
G1 X181.393 Y16.863 E37.27528
G1 X184.833 Y15.38 E37.46217
G1 X188.057 Y13.585 E37.64627
G1 X189.292 Y12.862 E37.71766
G1 X190.55 Y12.214 E37.78826
G1 X191.18 Y11.883 E37.82377
G1 X192.722 Y11.189 E37.90813
G1 X193.326 Y10.725 E37.94613
G1 X193.716 Y9.874 E37.99283
G1 X193.66 Y8.947 E38.03916
G1 X193.187 Y8.15 E38.0854
G1 X192.393 Y7.669 E38.13172
G1 X191.575 Y7.611 E38.17263
G1 X190.965 Y7.782 E38.20423
G1 X190.779 Y7.793 E38.21353
G1 X190.651 Y7.766 E38.22006
G1 X190.532 Y7.707 E38.22668
G1 X190.416 Y7.611 E38.2342
G1 X190.333 Y7.5 E38.24111
G1 X190.276 Y7.364 E38.24847
G1 X190.255 Y7.227 E38.25538
G1 X190.267 Y7.094 E38.26204
G1 X190.317 Y6.947 E38.26979
G1 X190.39 Y6.833 E38.27654
G1 X190.494 Y6.735 E38.28367
G1 X190.619 Y6.664 E38.29085
G1 X191.251 Y6.486 E38.3236
G1 X192.005 Y6.445 E38.36128
G1 X192.733 Y6.581 E38.39822
G1 X193.409 Y6.889 E38.43529
G1 X193.995 Y7.351 E38.47251
G1 X194.446 Y7.933 E38.50925
G1 X194.747 Y8.609 E38.54617
G1 X194.881 Y9.348 E38.58364
G1 X194.833 Y10.085 E38.62048
G1 X194.612 Y10.784 E38.65706
G1 X194.221 Y11.426 E38.69456
G1 X193.695 Y11.948 E38.73153
G1 X192.972 Y12.381 E38.77358
G1 X189.891 Y13.891 E38.94476
G1 X186.986 Y15.758 E39.11704
G1 X184.319 Y17.954 E39.2894
G1 X181.926 Y20.449 E39.46187
G1 X179.844 Y23.208 E39.63431
G1 X178.099 Y26.189 E39.80664
G1 X176.716 Y29.359 E39.97919
G1 X175.714 Y32.666 E40.15158
G1 X175.108 Y36.066 E40.32388
G1 X174.905 Y39.517 E40.49635
G1 X175.108 Y42.967 E40.66877
G1 X175.714 Y46.368 E40.84112
G1 X176.716 Y49.674 E41.01347
G1 X178.099 Y52.844 E41.18601
G1 X179.844 Y55.825 E41.35834
G1 X181.926 Y58.584 E41.53079
G1 X184.319 Y61.079 E41.70326
G1 X186.986 Y63.275 E41.87562
G1 X189.891 Y65.143 E42.04793
G1 X192.9 Y66.611 E42.21496
G1 X193.565 Y66.988 E42.2531
G1 X194.129 Y67.495 E42.29093
G1 X194.543 Y68.107 E42.3278
G1 X194.802 Y68.805 E42.36494
G1 X194.884 Y69.539 E42.40179
G1 X194.789 Y70.28 E42.43906
G1 X194.522 Y70.969 E42.47592
G1 X194.098 Y71.573 E42.51274
G1 X193.534 Y72.064 E42.55005
G1 X192.877 Y72.401 E42.58689
G1 X192.154 Y72.575 E42.62399
G1 X191.417 Y72.568 E42.66076
G1 X190.668 Y72.377 E42.69932
G1 X190.499 Y72.293 E42.70874
G1 X190.385 Y72.188 E42.71647
G1 X190.314 Y72.079 E42.72296
G1 X190.268 Y71.943 E42.73012
G1 X190.255 Y71.806 E42.73699
G1 X190.276 Y71.669 E42.7439
G1 X190.333 Y71.533 E42.75126
G1 X190.418 Y71.42 E42.75831
G1 X190.527 Y71.329 E42.7654
G1 X190.657 Y71.265 E42.77263
G1 X190.79 Y71.237 E42.77941
G1 X190.937 Y71.242 E42.78675
G1 X191.609 Y71.432 E42.82159
G1 X192.478 Y71.34 E42.86518
G1 X193.249 Y70.813 E42.91177
G1 X193.688 Y69.997 E42.958
G1 X193.696 Y69.066 E43.00445
G1 X193.275 Y68.254 E43.05008
G1 X192.721 Y67.848 E43.08435
G1 X189.601 Y66.35 E43.25702
G1 X186.859 Y64.652 E43.41793
G1 X184.285 Y62.656 E43.58043
G1 X181.951 Y60.411 E43.742
G1 X179.874 Y57.935 E43.90323
G1 X178.048 Y55.222 E44.06638
G1 X176.689 Y52.658 E44.21116
G1 X176.343 Y51.879 E44.25369
G1 X175.309 Y49.293 E44.39263
G1 X174.243 Y46.752 E44.53011
G1 X172.795 Y44.306 E44.67192
G1 X171.027 Y42.08 E44.81374
G1 X168.969 Y40.119 E44.95556
G1 X166.662 Y38.459 E45.09736
G1 X164.15 Y37.13 E45.23914
G1 X161.478 Y36.161 E45.38094
G1 X158.737 Y35.572 E45.52082
G1 X147.014 Y34.064 E46.1105
G1 X135.295 Y32.891 E46.69808
G1 X123.546 Y32.055 E47.28572
G1 X111.777 Y31.551 E47.87342
G1 X100 Y31.384 E48.46104
G1 X88.223 Y31.551 E49.04865
G1 X76.454 Y32.055 E49.63635
G1 X64.705 Y32.891 E50.22399
G1 X52.986 Y34.064 E50.81157
G1 X41.263 Y35.572 E51.40126
G1 X38.522 Y36.161 E51.54113
G1 X35.85 Y37.13 E51.68293
G1 X33.338 Y38.459 E51.82471
G1 X31.031 Y40.119 E51.96651
G1 X28.973 Y42.08 E52.10833
G1 X27.205 Y44.306 E52.25015
G1 X25.757 Y46.752 E52.39196
G1 X24.863 Y48.885 E52.50735
G1 X23.468 Y52.356 E52.69398
G1 X21.944 Y55.233 E52.85641
G1 X20.127 Y57.933 E53.01877
G1 X18.047 Y60.411 E53.18018
G1 X15.717 Y62.655 E53.34157
G1 X13.142 Y64.651 E53.50411
G1 X10.4 Y66.349 E53.66502
G1 X7.273 Y67.851 E53.83809
G1 X6.702 Y68.276 E53.8736
G1 X6.292 Y69.112 E53.92005
G1 X6.325 Y70.044 E53.96658
G1 X6.779 Y70.847 E54.0126
G1 X7.561 Y71.355 E54.05913
G1 X8.402 Y71.428 E54.10124
G1 X9.049 Y71.246 E54.13477
G1 X9.22 Y71.244 E54.14331
G1 X9.356 Y71.276 E54.15028
G1 X9.479 Y71.339 E54.15717
G1 X9.593 Y71.439 E54.16474
G1 X9.67 Y71.547 E54.17135
G1 X9.719 Y71.675 E54.17819
G1 X9.738 Y71.822 E54.18559
G1 X9.722 Y71.959 E54.19247
G1 X9.674 Y72.09 E54.19943
G1 X9.592 Y72.211 E54.20672
G1 X9.505 Y72.29 E54.21258
G1 X9.308 Y72.388 E54.22356
G1 X8.666 Y72.571 E54.25687
G1 X7.916 Y72.594 E54.2943
G1 X7.189 Y72.439 E54.33139
G1 X6.521 Y72.115 E54.36843
G1 X5.951 Y71.642 E54.40538
G1 X5.503 Y71.036 E54.44298
G1 X5.216 Y70.349 E54.48012
G1 X5.102 Y69.615 E54.51718
G1 X5.168 Y68.881 E54.55395
G1 X5.413 Y68.166 E54.59166
G1 X5.811 Y67.548 E54.62833
G1 X6.358 Y67.031 E54.66588
G1 X7.093 Y66.614 E54.70804
G1 X10.109 Y65.143 E54.87545
G1 X13.014 Y63.275 E55.04776
G1 X15.681 Y61.079 E55.22012
G1 X18.073 Y58.584 E55.39256
G1 X20.156 Y55.825 E55.56503
G1 X21.901 Y52.844 E55.73736
G1 X23.284 Y49.674 E55.90991
G1 X24.286 Y46.368 E56.08225
G1 X24.892 Y42.966 E56.25465
G1 X25.095 Y39.517 E56.42702
G1 X24.892 Y36.067 E56.59944
G1 X24.286 Y32.666 E56.77179
G1 X23.284 Y29.359 E56.94418
G1 X21.901 Y26.189 E57.11673
G1 X20.156 Y23.208 E57.28906
G1 X18.073 Y20.449 E57.46153
G1 X15.681 Y17.954 E57.63397
G1 X13.014 Y15.758 E57.80633
G1 X10.108 Y13.89 E57.97868
G1 X7.399 Y12.568 E58.12907
G1 X6.35 Y11.995 E58.1887
G1 X5.811 Y11.485 E58.22572
G1 X5.413 Y10.867 E58.2624
G1 X5.168 Y10.152 E58.3001
G1 X5.102 Y9.418 E58.33687
G1 X5.216 Y8.684 E58.37393
G1 X5.504 Y7.994 E58.41123
G1 X5.948 Y7.393 E58.44851
G1 X6.518 Y6.922 E58.4854
G1 X7.195 Y6.591 E58.523
G1 X7.915 Y6.438 E58.55972
G1 X8.665 Y6.462 E58.59716
G1 X9.37 Y6.662 E58.63372
G1 X9.515 Y6.748 E58.64213
G1 X9.61 Y6.843 E58.64883
G1 X9.688 Y6.972 E58.65635
G1 X9.728 Y7.098 E58.66295
G1 X9.737 Y7.235 E58.6698
G1 X9.71 Y7.386 E58.67745
G1 X9.656 Y7.508 E58.6841
G1 X9.567 Y7.622 E58.69132
G1 X9.457 Y7.709 E58.69832
G1 X9.332 Y7.766 E58.70517
G1 X9.189 Y7.792 E58.71242
G1 X9.037 Y7.784 E58.72002
G1 X8.425 Y7.612 E58.75173
G1 X7.575 Y7.672 E58.79424
G0 F3600 X7.079 Y9.203
G0 X7.278 Y10.206
G0 X32.327 Y32.328
G1 F1800 X33.503 Y32.894 E58.85936
G1 X34.776 Y33.164 E58.92428
G1 X35.819 Y33.131 E58.97634
G1 X37.919 Y32.851 E59.08204
G1 X47.238 Y31.535 E59.55158
G1 X58.394 Y30.263 E60.11176
G1 X69.633 Y29.292 E60.67456
G1 X80.84 Y28.625 E61.23467
G1 X92.195 Y28.256 E61.80148
G1 X93.395 Y28.087 E61.86193
G1 X94.605 Y27.601 E61.92699
G1 X95.664 Y26.839 E61.99208
G1 X96.51 Y25.849 E62.05705
G1 X97.093 Y24.683 E62.12209
G1 X97.382 Y23.411 E62.18716
G1 X97.357 Y22.106 E62.25228
G1 X97.022 Y20.846 E62.31733
G1 X96.393 Y19.703 E62.38242
G1 X95.509 Y18.742 E62.44756
G1 X94.421 Y18.023 E62.51262
G1 X93.195 Y17.583 E62.57761
G1 X92.134 Y17.475 E62.63081
G1 X80.359 Y17.834 E63.21854
G1 X68.832 Y18.521 E63.79465
G1 X57.329 Y19.517 E64.37068
G1 X45.856 Y20.824 E64.94678
G1 X34.352 Y22.451 E65.52642
G1 X33.168 Y22.782 E65.58776
G1 X32.033 Y23.426 E65.65286
G1 X31.087 Y24.324 E65.71794
G1 X30.381 Y25.423 E65.78311
G1 X29.96 Y26.657 E65.84816
